icons/admissions.svg

<svg xmlns="http://www.w3.org/2000/svg" viewBox="0 0 51.26 51.26">
  <g fill="#FFFFFF">
    <path d="M45.83 43.53v-13l-2.65-3.06H31.81v-1.53l.41.22.48-.88-7.53-4.09-7 4.1.5.86L19 26v1.52H8.07l-2.64 3.01v16h40.4v-3Zm-8.35-2.88h-2.94v-2.94h2.94Zm0-5.09h-2.94v-2.94h2.94Zm5.64 5.09h-2.93v-2.94h2.93Zm0-5.09h-2.93v-2.94h2.93Zm-15.3.79v7.18H23v-7.18ZM24 27.88a1.4 1.4 0 1 1 1.4 1.4 1.4 1.4 0 0 1-1.4-1.4ZM10.63 40.65H7.7v-2.94h2.93Zm0-5.09H7.7v-2.94h2.93Zm5.65 5.09h-2.94v-2.94h2.94Zm0-5.09h-2.94v-2.94h2.94ZM21 15.42l3.77 3.82a1 1 0 0 0 1.24 0l3.77-3.82 3.77-3.83c.27-.28-.07-.63-.62-.63h-3.59V4.71a.68.68 0 0 0-.68-.71H22a.67.67 0 0 0-.67.67V11h-3.46c-.55 0-.89.35-.62.63Z"/>
  </g>
</svg>

<svg xmlns="http://www.w3.org/2000/svg" viewBox="0 0 51.26 51.26"><defs><style>.cls-1{fill:#fff;}</style></defs><g id="Layer_2" data-name="Layer 2"><path class="cls-1" d="M45.83,43.53v-13l-2.65-3.06H31.81V25.94l.41.22.48-.88-7.53-4.09-7,4.1.5.86L19,26v1.52H8.07L5.43,30.53v13h0v3h40.4v-3h0Zm-8.35-2.88H34.54V37.71h2.94Zm0-5.09H34.54V32.62h2.94Zm5.64,5.09H40.19V37.71h2.93Zm0-5.09H40.19V32.62h2.93Zm-15.3.79v7.18H23V36.35ZM24,27.88a1.4,1.4,0,1,1,1.4,1.4A1.4,1.4,0,0,1,24,27.88ZM10.63,40.65H7.7V37.71h2.93Zm0-5.09H7.7V32.62h2.93Zm5.65,5.09H13.34V37.71h2.94Zm0-5.09H13.34V32.62h2.94Z"/><path class="cls-1" d="M21,15.42l3.77,3.82a1,1,0,0,0,1.24,0l3.77-3.82,3.77-3.83c.27-.28-.07-.63-.62-.63H29.34V4.71A.68.68,0,0,0,28.66,4H22a.67.67,0,0,0-.67.67V11H17.87c-.55,0-.89.35-.62.63Z"/></g></svg>
